!!!!SEGMENT: pl-wtm--r-1405--001_stefani-jozef--allegro-moderato.krn
!!!cenid: 18xx:1874
!!!COM: Stefani, Józef
!!!COM-rismid: pe30024097
!!!CDT: 1800/04/16-1876/03/19
!!!CNT: Polish
!!!OTL: Allegro moderato
!!!PDT:
!!!AGN: Secular
!!!SMS-siglum: PL-Wtm
!!!SMS-shelfmark: R 1405
!!!SMS-shelfwork: 001 W
!!!SMS-variant:
!!!SMS-altvar:
!!!NIFC-rismid: 1001117990
!!!URL-scan: http://repozytoriumplikow.nifc.pl/skany/pl-wtm-nut--r1405
!!!ONB-nifc: UWAGA: Początek utworu na s. 6, zakończenie na s. 1 (!) Nad nutami na s. 1 dodano ołówkiem "Andante"
**kern	**kern	**dynam
*part2	*part1	*part1
*staff2	*staff1	*
*I"Piano	*I"Piano	*
*I'P-no	*I'P-no	*
*clefF4	*clefG2	*
*k[f#c#]	*k[f#c#]	*
*b:	*b:	*
*M2/4	*M2/4	*
=1	=1	=1
!	!LO:TX:a:t=All(egr)o \nmod(era)to	!
4r	4r	p
8A\ 8AA\	8dd#X/ 8b/ 8f#/	.
8r	8r	.
=2	=2	=2
8G#X\ 8GG#X\	8ee\ 8b\ 8e\	<
8r	8r	.
8Gn\ 8GGn\	8ee#X\ 8b\ 8e#X\	.
8r	8r	[[
=3	=3	=3
!	!	!LO:DY:rj
8F#\ 8FF#\	8ff#\ 8a#X\ 8f#\	f
16.F#\LL|	8r	.
32G\JJk|	.	.
16.F#\LL|	16.r	.
32E\K|	32ff#\KLL	.
16.D\|	16.gg#X\	.
32C#\JJk|	32aa#X\JJk	.
!!LO:LB:g=original
=4	=4	=4
16D\LL 16BB\	4bbT\	.
16F#\	.	.
16D\ 16BB\	.	.
16F#\JJ	.	.
.	(16qqaa#X/LL	.
.	16qqbb/	.
.	16qqccc#/JJ	.
8D\ 8BB\	16.bb\LL)	.
.	32ff#\K	.
8r	16.ddd\	.
.	32ccc#\JJk	.
=5	=5	=5
*rep	*rep	*
16D\LL 16BB\	4bbT\	.
16F#\	.	.
16D\ 16BB\	.	.
16F#\JJ	.	.
.	(16qqaa#X/LL	.
.	16qqbb/	.
.	16qqccc#/JJ	.
8D\ 8BB\	16.bb\LL)	.
.	32ff#\K	.
8r	16.ddd\	.
.	32ccc#\JJk	.
*Xrep	*Xrep	*
=6	=6	=6
16.D/ 16.BB/	16.bb\	.
32G\KLL	32g/KLL	.
16.F#\	16.f#/	.
32E#X\JJk	32e#X/JJk	.
8F#\	8f#/	.
8F#/ 8FF#/	8bb\ 8ff#\ 8dd\	.
=7	=7	=7
*tremolo	*	*
8F#/L 8FF#/	8aa#X\L 8ff#\ 8cc#\	.
8F#/ 8FF#/	8bb\ 8ff#\ 8dd\	.
8F#/ 8FF#/	8ccc#\ 8ff#\ 8ee\	.
8F#/J 8FF#/	8ddd\J 8bb\ 8ff#\ 8dd\	.
*Xtremolo	*	*
=8	=8	=8
(16D\LL 16BB\	4bbT\	.
16F#\	.	.
16D\ 16BB\	.	.
16F#\JJ	.	.
.	(16qqaa#X/LL	.
.	16qqbb/	.
.	16qqccc#/JJ	.
8D\ 8BB\)	16.bb\LL)	.
.	32ff#\K	.
8r	16.ddd\	.
.	32ccc#\JJk	.
=9	=9	=9
*rep	*rep	*
(16D\LL 16BB\	4bbT\	.
16F#\	.	.
16D\ 16BB\	.	.
16F#\JJ	.	.
.	(16qqaa#X/LL	.
.	16qqbb/	.
.	16qqccc#/JJ	.
8D\ 8BB\)	16.bb\LL)	.
.	32ff#\K	.
8r	16.ddd\	.
.	32ccc#\JJk	.
*Xrep	*Xrep	*
!!LO:LB:g=original
=10	=10	=10
16.D/ 16.BB/	16.bb\	.
32G\KLL	32g/KLL	.
16.F#\	16.f#/	.
32E#X\JJk	32e#X/JJk	.
8F#\	8f#/	.
8F#/ 8FF#/	8bb\ 8ff#\ 8dd\	.
=11	=11	=11
8F#/L 8FF#/	8aa#X\L 8ff#\ 8cc#\	.
8F#/ 8FF#/	8ccc#\ 8ff#\ 8ee\	.
8B/J 8BB/	8bb\J 8ff#\ 8dd\	.
8r	8r	.
=12	=12	=12
!	!	!LO:DY:rj
8D\L	8.a\L	pp
8f#\J 8d\ 8A\	.	.
.	16dd\Jk	.
*rep	*	*
8D\L	16.ff#\LL	.
.	32ff#\K	.
8f#\J 8d\ 8A\	16.ff#\	.
.	32ff#\JJk	.
*Xrep	*	*
=13	=13	=13
8G\L	8ff#'\L	.
8g\J 8e\ 8B\	8b'\J	.
*rep	*	*
8G\L	4bb'\	.
8g\J 8e\ 8B\	.	.
*Xrep	*	*
=14	=14	=14
8A\L	16cc#\	.
.	16r	.
8g\J 8e\	(32bb\LLL	.
.	32aa\	.
.	32gg\	.
.	32ee\JJJ	.
*rep	*	*
8A\L	16cc#\)	.
.	16r	.
8g\J 8e\	[8aa\	.
*Xrep	*	*
!!LO:PB:g=original
=15	=15	=15
8D\L	8aa\L]	.
8f#\J 8d\ 8A\	(32gg\LL	.
.	32ff#\	.
.	32ee\	.
.	32dd\JJJ	.
*rep	*	*
8D\L	(8ddd\L)	.
8f#\J 8d\ 8A\	16dd\Jk)	.
.	16r	.
*Xrep	*	*
=16	=16	=16
*rep	*	*
8D\L	8.a\L	.
8f#\J 8d\ 8A\	.	.
.	16dd\Jk	.
8D\L	16.ff#\LL	.
.	32ff#\K	.
8f#\J 8d\ 8A\	16.ff#\	.
.	32ff#\JJk	.
*Xrep	*	*
=17	=17	=17
8G\L	8ff#\L	.
8g\J 8e\ 8B\	8b\J	.
*rep	*	*
8G\L	(4bb^<\	.
8g\J 8e\ 8B\	.	.
*Xrep	*	*
=18	=18	=18
8A\L	16cc#\)	.
.	16r	.
8g\J 8e\	(32bb\LLL	.
.	32aa\	.
.	32gg\	.
.	32ee\JJJ	.
*rep	*	*
!	!LO:TUP:a	!
8A\L	24cc#\LL)	.
.	24ee'\	.
.	24ff#'\JJ	.
!	!LO:TUP:a	!
8g\J 8e\	24gg'\LL	.
.	24b'\	.
.	24cc#'\JJ	.
*Xrep	*	*
=19	=19	=19
8f#\ 8d\	8dd\	.
8r	8r	.
16.r	16.r	.
32F#\KLL	32ff#\KLL	.
16.E\	16.gg#X\	.
32C#\JJk	32aa#X\JJk	.
!!LO:LB:g=original
=20	=20	=20
8BB\L	4bbT\	.
8d\ 8B\ 8F#\	.	.
.	(16qqaa#X/LL	.
.	16qqbb/JJ)	.
!	!LO:TUP:a	!
8B\J 8F#\ 8D\	(24ddd\LL	.
.	24fff#\	.
.	24ddd\JJ	.
!	!LO:TUP:a	!
8r	24bb\LL	.
.	24ff#\	.
.	24dd\JJ)	.
=21	=21	=21
*rep	*rep	*
8BB\L	4bbT\	.
8d\ 8B\ 8F#\	.	.
.	(16qqaa#X/LL	.
.	16qqbb/JJ	.
!	!LO:TUP:a	!
8B\J 8F#\ 8D\	(24ddd\LL)	.
.	24fff#\	.
.	24ddd\JJ	.
!	!LO:TUP:a	!
8r	24bb\LL	.
.	24ff#\	.
.	24dd\JJ)	.
*Xrep	*Xrep	*
=22	=22	=22
8BB\L	8bb\	.
!	!LO:TUP:a	!
8f#\ 8d\ 8B\	(24ddd\LL	.
.	24eee\	.
.	24ddd\JJ	.
!	!LO:TUP:a	!
8f#\ 8c#\ 8A\	24ccc#\LL	.
.	24ddd\	.
.	24ccc#\JJ	.
!	!LO:TUP:a	!
8d\J 8B\ 8G\	24bb\LL	.
.	24ccc#\	.
.	(24bb\JJ	.
=23	=23	=23
!	!LO:TUP:a	!
8d\L 8B\ 8F#\	24aan\LL)	.
.	24bb\	.
.	24aa\JJ	.
!	!LO:TUP:a	!
8B\ 8G\ 8E\	24ggn\LL	.
.	24aa\	.
.	24gg\JJ	.
!	!LO:TUP:a	!
8B\ 8F#\ 8D\	24ff#\LL	.
.	24ee#X\	.
.	24ff#\JJ	.
!	!LO:TUP:a	!
8F#\J 8E\ 8C#\	24gg\LL	.
.	24gg#X\	.
.	24aa\JJ)	.
!!LO:LB:g=original
=24	=24	=24
8F#\L 8D\ 8BB\	4bbT\	.
8d\ 8B\ 8F#\	.	.
.	(16qqaa#X/LL	.
.	16qqbb/JJ)	.
8B\J 8F#\ 8D\	(>24ddd\LL	.
.	24fff#\	.
.	24ddd\JJ	.
8r	24bb\LL	.
.	24ff#\	.
.	24dd\JJ)	.
=25	=25	=25
*	*rep	*
8BB\L	4bbT\	.
8d\ 8B\ 8F#\	.	.
.	(16qqaa#X/LL	.
.	16qqbb/JJ)	.
8B\J 8F#\ 8D\	(24ddd\LL	.
.	24fff#\	.
.	24ddd\JJ	.
8r	24bb\LL	.
.	24ff#\	.
.	24dd\JJ)	.
*	*Xrep	*
=26	=26	=26
*^	*	*
*	*	*Xtuplet	*
8E\L	4E/	24ee\LL	.
.	.	24ggn\	.
.	.	24cccn\JJ	.
8cn\J 8G\	.	24eee\LL	.
.	.	24ddd\	.
.	.	24ccc#X\JJ	.
8F#\L	4F#/	24bb\LL	.
.	.	24aa#X\	.
.	.	24gg#X\JJ	.
8e\J 8c\ 8A#X\	.	24ff#\LL	.
.	.	24gg#\	.
.	.	24aa#\JJ	.
*v	*v	*	*
=27	=27	=27
8BB\L	24bb\LL	.
.	24ddd\	.
.	24ff#\JJ	.
8d\ 8B\ 8F#\	24bb\LL	.
.	24dd\	.
.	24ff#\JJ	.
8B\J 8F#\ 8D\	8b\	.
8r	8r	.
!!LO:LB:g=original
=28	=28	=28
16D\LL 16BB\	4bbT\	.
16F#\	.	.
16D\ 16BB\	.	.
16F#\JJ	.	.
.	16qqaa#X/LL	.
.	16qqbb/	.
.	16qqccc#/JJ	.
8D\ 8BB\	16.bb\LL	.
.	32ff#\K	.
8r	16.ddd\	.
.	32ccc#\JJk	.
=29	=29	=29
*rep	*rep	*
16D\LL 16BB\	4bbT\	.
16F#\	.	.
16D\ 16BB\	.	.
16F#\JJ	.	.
.	16qqaa#X/LL	.
.	16qqbb/	.
.	16qqccc#/JJ	.
8D\ 8BB\	16.bb\LL	.
.	32ff#\K	.
8r	16.ddd\	.
.	32ccc#\JJk	.
*Xrep	*Xrep	*
=30	=30	=30
16.D/ 16.BB/	16.bb\	.
32G\KLL	32g/KLL	.
16.F#\	16.f#/	.
32E#X\JJk	32e#X/JJk	.
8F#\	8f#/	.
8F#/ 8FF#/	8bb\ 8ff#\ 8dd\	.
=31	=31	=31
*tremolo	*	*
8F#/L 8FF#/	8aa#X\L 8ff#\ 8cc#\	.
8F#/ 8FF#/	8bb\ 8ff#\ 8dd\	.
8F#/ 8FF#/	8ccc#\ 8ff#\ 8ee\	.
8F#/J 8FF#/	8ddd\J 8bb\ 8ff#\ 8dd\	.
*Xtremolo	*	*
=32	=32	=32
16D\LL 16BB\	4bbT\	.
16F#\	.	.
16D\ 16BB\	.	.
16F#\JJ	.	.
.	(16qqaa#X/LL	.
.	16qqbb/	.
.	16qqccc#/JJ)	.
8D\ 8BB\	16.bb\LL	.
.	32ff#\K	.
8r	16.ddd\	.
.	32ccc#\JJk	.
=33	=33	=33
*rep	*rep	*
16D\LL 16BB\	4bbT\	.
16F#\	.	.
16D\ 16BB\	.	.
16F#\JJ	.	.
.	(16qqaa#X/LL	.
.	16qqbb/	.
.	16qqccc#/JJ)	.
8D\ 8BB\	16.bb\LL	.
.	32ff#\K	.
8r	16.ddd\	.
.	32ccc#\JJk	.
*Xrep	*Xrep	*
!!LO:LB:g=original
=34	=34	=34
16.D/ 16.BB/	16.bb\	.
32G\KLL	32g/KLL	.
16.F#\	16.f#/	.
32E#X\JJk	32e#X/JJk	.
8F#\	8g/	.
8F#/ 8FF#/	8bb\ 8ff#\ 8dd\	.
=35	=35	=35
8F#/L 8FF#/	8aa#X\L 8ff#\ 8cc#'\	.
8F#/ 8FF#/	8ddd\ 8ff#\ 8ee'\	.
8B/J 8BB/	8bb\J 8ff#\ 8dd'\	.
8r	8r	.
==	==	==
*-	*-	*-
!!!system-decoration: [(s1,s2)]
!!!EED: Leszek Kubiak
!!!EST: 2021-05-05
!!!ENC:Berenika Jozajtis
!!!END:2021-04-10
!!!RDF**kern: | = vertical stroke
